X:19029
T:Streets of Laredo
T:Banks of the Devon
T:Bard of Armagh
R:Air
C:Trad.
O:Scotland, then Ireland, then USA
M:3/4
L:1/8
Q:1/4=120
K:G
D2|"G"d4 c B|"C"c2 d3 c|"G"B2 A2 G2|"D7"F2 D3 D|"G"G4 F G|"C"A2 B3 c|"G"B2 A2 G2|"D7"A4 D2|
"G"d2 ed cB|"C"c2 d3 c|"G"B2 A2 G2|"D7"F2 D2 D2|"G"G4 F G|"C"A2 d3 c|"G"B2 G2 "D7"A2|"G"G4||
D2|"Am"A2> A2 A2|"D7"A2 B2 c2|"G"d2> e2 d2|"G"B2 A2 G2|"Am"A2> A2 A2|"C"A2 B3 c|"G"d2 c2 B2|"D7"A4 D2|
"G"d2 ed cB|"C"c2 d3 c|"G"B2 A2 G2|"D7"F2 D2 D2|"G"G4 F G|"C"A2 d3 c|"G"B2 G2 "D7"A2|"G"G4|]

